storage/app/icons/phosphoricons/thin/trash-thin.svg

<svg xmlns="http://www.w3.org/2000/svg" fill="currentColor" viewBox="0 0 256 256"><path d="M216 52h-44V40a20 20 0 0 0-20-20h-48a20 20 0 0 0-20 20v12H40a4 4 0 0 0 0 8h12v148a12 12 0 0 0 12 12h128a12 12 0 0 0 12-12V60h12a4 4 0 0 0 0-8M92 40a12 12 0 0 1 12-12h48a12 12 0 0 1 12 12v12H92Zm104 168a4 4 0 0 1-4 4H64a4 4 0 0 1-4-4V60h136Zm-88-104v64a4 4 0 0 1-8 0v-64a4 4 0 0 1 8 0m48 0v64a4 4 0 0 1-8 0v-64a4 4 0 0 1 8 0"/></svg>

<svg xmlns="http://www.w3.org/2000/svg" viewBox="0 0 256 256" fill="currentColor"><path d="M216,52H172V40a20,20,0,0,0-20-20H104A20,20,0,0,0,84,40V52H40a4,4,0,0,0,0,8H52V208a12,12,0,0,0,12,12H192a12,12,0,0,0,12-12V60h12a4,4,0,0,0,0-8ZM92,40a12,12,0,0,1,12-12h48a12,12,0,0,1,12,12V52H92ZM196,208a4,4,0,0,1-4,4H64a4,4,0,0,1-4-4V60H196ZM108,104v64a4,4,0,0,1-8,0V104a4,4,0,0,1,8,0Zm48,0v64a4,4,0,0,1-8,0V104a4,4,0,0,1,8,0Z"/></svg>
